!!!!SEGMENT: Wil2098-Dulces_exuviae.krn
!!!id: Wil2098
!!!AGN: Motet
!!!voices: 4
!!!COM: Adrian Willaert
!!!OTL: Dulces exuviae
**kern	**kern	**kern	**kern
*part4	*part3	*part2	*part1
*staff4	*staff3	*staff2	*staff1
*I"Bassus	*I"Tenor	*I"Altus	*I"Superius
*I'B	*I'T	*I'A	*I'S
*clefF4	*clefGv2	*clefGv2	*clefG2
*k[]	*k[]	*k[]	*k[]
*C:	*C:	*C:	*C:
*M2/1	*M2/1	*M2/1	*M2/1
*met(C|)	*met(C|)	*met(C|)	*met(C|)
!!section: Prima pars: Dulces exuviae
!!!OMD: Prima pars: Dulces exuviae
=1	=1	=1	=1
0AA	0A	0c	0e
=2	=2	=2	=2
1C	1G	1c	1e
1C	1E	2.c	1g
.	.	4B	.
=3	=3	=3	=3
1.D	2.F	1A	1.f
.	4G	.	.
.	2A	2d	.
2D	2A	2d	2f
=4	=4	=4	=4
1AA	1A	1c#X	1e
2r	2r	2r	2r
2AA	2E	2c#i	2a
=5	=5	=5	=5
1AA	1E	1c#i	1a
2D	2F#X	2d	2a
[2D	[2F#i	[2d	[2a
=6	=6	=6	=6
2D]	2F#]	2d]	2a]
2AA	2A	2e	2cc
4E	2G	[1e	2b
4D	.	.	.
4C	2G	.	[2cc
4BB	.	.	.
=7	=7	=7	=7
2AA	2.c	1e]	4cc]
.	.	.	4b
2AA	.	.	4a
.	4B	.	4g
1D	4A	1d	2f#X
.	4G	.	.
.	2F	.	[2a
=8	=8	=8	=8
1E	1G	1B	4a]
.	.	.	4g
.	.	.	1g
1D	1A	1d	.
.	.	.	2f#i
=9	=9	=9	=9
1G	1B	[0d	1g
2r	2r	.	2r
2G	2B	.	2g
=10	=10	=10	=10
1.G	1.B	0d]	1.g
2G	2B	.	2g
=11	=11	=11	=11
4C	1c	1e	1g
4D	.	.	.
4E	.	.	.
4F	.	.	.
2G	2B	2d	1g
2C	[2c	2e	.
=12	=12	=12	=12
2.F	4c]	2f	1.a
.	4B	.	.
.	4A	2c	.
4E	4G	.	.
2D	2F	2d	.
2GG	2D	2d	2b
=13	=13	=13	=13
0C	0E	0G	1cc
.	.	.	2r
.	.	.	2g
=14	=14	=14	=14
2r	2r	2r	2g
2C	2E	2c	2g
2AA	2E	2c	2a
2D	2F	2A	2a
=15	=15	=15	=15
2GG	2D	2B	1.g
2GG	2D	2B	.
[1C	2.E	[1c	.
.	.	.	2g
.	4F	.	.
=16	=16	=16	=16
2C]	2G	2c]	0e
2C	2G	2c	.
1AA	1A	1c	.
=17	=17	=17	=17
2r	2r	2r	2r
1D	1F#X	1A	1d
2GG	2G	2B	2d
=18	=18	=18	=18
2.C	1.G	2c	1.e
.	.	2c	.
4D	.	.	.
2E	.	2B	.
2E	2G	2B	2e
=19	=19	=19	=19
2D	2.A	1d	2f
2D	.	.	2f
.	4B	.	.
1AA	2c	1e	2e
.	2A	.	[2cc
=20	=20	=20	=20
1AA	1c	0e	4cc]
.	.	.	4b
.	.	.	1a
1E	1B	.	.
.	.	.	2g#i
=21	=21	=21	=21
1AA	1A	1e	1a
1r	1r	1r	1r
=22	=22	=22	=22
0AA	0c	0e	0a
=23	=23	=23	=23
1E	1B	0e	1g#X
2r	2r	.	2r
[2E	[2B	.	[2g#i
=24	=24	=24	=24
2E]	2B]	2r	2g#]
2E	2B	1e	2g#i
2.A	2.c#X	.	2.a
.	.	2e	.
4A	4c#i	.	4a
=25	=25	=25	=25
1D	2d	2.f#X	2a
.	2d	.	2a
.	.	4f#i	.
1G	2d	2g	2b
.	2d	2g	2b
=26	=26	=26	=26
2C	1e	2g	1cc
2C	.	2g	.
1F	1A	1c	2cc
.	.	.	2a
=27	=27	=27	=27
2F	2r	1.c	2.a
2F	1A	.	.
.	.	.	4g
2.F	.	.	1f
.	[2c	2A	.
4G	.	.	.
=28	=28	=28	=28
1A	4c]	1c	0e
.	4B	.	.
.	1A	.	.
1E	.	1B	.
.	2G#i	.	.
=29	=29	=29	=29
2r	1A	1r	2r
1F	.	.	1c
.	1r	1A	.
2F	.	.	2c
=30	=30	=30	=30
1D	2r	2A	1f
.	1A	1d	.
1AA	.	.	1e
.	2A	2c#i	.
=31	=31	=31	=31
0D	2A	1d	2.f
.	2A	.	.
.	.	.	4e
.	[1A	1f	1d
=32	=32	=32	=32
1AA	1A]	1e	1c#X
1AA	1E	2r	2r
.	.	2A	2c#i
=33	=33	=33	=33
1GG	2r	2B	2d
.	2G	2B	2d
1C	2G	1c	2.e
.	2G	.	.
.	.	.	4f
=34	=34	=34	=34
1C	2.E	1G	2g
.	.	.	2e
.	4F	.	.
2C	2G	1c	2e
2FF	2A	.	[2f
=35	=35	=35	=35
1BB-i	1D	2.F	4f]
.	.	.	4e
.	.	.	1d
.	.	4G	.
1AA	1E	1A	.
.	.	.	2c#i
=36	=36	=36	=36
2r	2D	2A	1d
1D	1F#X	1A	.
.	.	.	1r
2D	2F#i	2A	.
=37	=37	=37	=37
2C	2G	1c	1e
2AA	2A	.	.
1E	1G	1B	2e
.	.	.	[2e
=38	=38	=38	=38
0AA	[0E	2.c	2e]
.	.	.	2e
.	.	4B	.
.	.	1A	1cc
=39	=39	=39	=39
1r	1E]	0G#X	1.b
1EE	2r	.	.
.	[2E	.	2B
=40	=40	=40	=40
2AA	2E]	2r	2c#X
2GG	2G	2B	2d
1C	2G	2c	2.e
.	[2E	2G	.
.	.	.	4f
=41	=41	=41	=41
2.C	4E]	1c	2g
.	4F	.	.
.	2G	.	2e
4BB	.	.	.
2AA	2A	2c	2e
2FF	2A	2c	[2f
=42	=42	=42	=42
1BB-X	1D	2.F	4f]
.	.	.	4e
.	.	.	1d
.	.	4G	.
1AA	1E	1A	.
.	.	.	2c#i
=43	=43	=43	=43
0D	0F#X	0A	0d
=44	=44	=44	=44
1r	1r	1r	1r
1C	1G	1c	1e
=45	=45	=45	=45
1.C	1.G	1.c	1.e
2C	2A	2c	2e
=46	=46	=46	=46
1GG	1B	2.d	1g
.	.	4e	.
2FF	1c	1f	2a
[2F	.	.	[2a
=47	=47	=47	=47
4F]	1.A	2c	4a]
4E	.	.	4g
1D	.	1d	4f
.	.	.	4e
.	.	.	2f
2D	2A	2d	2f
=48	=48	=48	=48
1E	1G#X	1B	[0e
2r	2r	2r	.
[2AA	[2A	[2c	.
=49	=49	=49	=49
2AA]	2A]	2c]	1e]
2AA	2A	2c	.
[1GG	[1B	[1d	2r
.	.	.	[2g
=50	=50	=50	=50
2GG]	2B]	2d]	2g]
2C	2c	2e	2g
1AA	1c	2e	[1a
.	.	[2f	.
=51	=51	=51	=51
2.A	1.c	4f]	2a]
.	.	4e	.
.	.	1e	2a
4G	.	.	.
1F	.	.	1a
.	4B	2d	.
.	4A	.	.
=52	=52	=52	=52
2.E	2B	1e	0g
.	1c	.	.
4F	.	.	.
1G	.	1d	.
.	2B	.	.
=53	=53	=53	=53
2r	1c	2r	0g
1C	.	1e	.
.	2r	.	.
2C	[2c	2e	.
=54	=54	=54	=54
2AA	2c]	2e	2r
2AA	2c	2e	1a
1D	2A	1f	.
.	2d	.	2a
=55	=55	=55	=55
2AA	1c	1e	2a
2.AA	.	.	2a
.	2A	[1e	1cc
4BB	.	.	.
4C	[2G	.	.
4D	.	.	.
=56	=56	=56	=56
4E	4G]	2e]	2b
4F	4A	.	.
1G	4B	2d	1b
.	4c	.	.
.	2d	1g	.
2E	[2e	.	2b
=57	=57	=57	=57
2.A	4e]	1e	1cc
.	4d	.	.
.	4c	.	.
4G	4B	.	.
4F	1A	[1f	2cc
4E	.	.	.
[2F	.	.	2cc
=58	=58	=58	=58
4F]	2d	1f]	2.a
4E	.	.	.
2D	2d	.	.
.	.	.	4b
4C	[1G	1e	2cc
4D	.	.	.
4E	.	.	2b
4F	.	.	.
=59	=59	=59	=59
2G	1G]	2d	2b
2C	.	2e	2.cc
1F	2.A	2.c	.
.	.	.	4b
.	.	.	[2a
.	4B	4d	.
=60	=60	=60	=60
2C	2c	2e	4a]
.	.	.	4g
2E	2G	2B	2.g
1D	1A	1d	.
.	.	.	4f#i
.	.	.	2f#i
=61	=61	=61	=61
[0GG	1B	1d	[0g
.	1r	1r	.
=62	=62	=62	=62
0GG]	0B	0d	1g]
.	.	.	1r
=63	=63	=63	=63
0C	0c	0e	0g
=64	=64	=64	=64
1FF	1c	2r	1.a
.	.	2f	.
1F	2c	2f	.
.	2c	2f	2a
=65	=65	=65	=65
2F	2.A	1c	2a
2F	.	.	2a
.	4G	.	.
1D	2F	1f	1a
.	[2A	.	.
=66	=66	=66	=66
2.C	4A]	2.e	0cc
.	4G	.	.
.	1G	.	.
4BB	.	4d	.
1AA	.	2c	.
.	2F#i	2A	.
=67	=67	=67	=67
1GG	2G	1d	1b
.	1G	.	.
2r	.	1d	2.b
[2GG	[2D	.	.
.	.	.	4a
=68	=68	=68	=68
2GG]	2D]	1.g	2b
1C	2E	.	1cc
.	1E	.	.
2C	.	2e	2g
=69	=69	=69	=69
1AA	1E	2.c	2a
.	.	.	2.cc
.	.	4d	.
1AA	1c	1e	.
.	.	.	4b
.	.	.	[2a
=70	=70	=70	=70
1E	1B	1e	4a]
.	.	.	8gL
.	.	.	8fJ
.	.	.	2g
2AA	1r	1c	2e
2AA	.	.	2e
=71	=71	=71	=71
2AA	1A	1.c	2e
2AA	.	.	2e
2.FF	2A	.	[1f
.	2A	2c	.
4GG	.	.	.
=72	=72	=72	=72
2AA	2A	2c	2f]
2C	2G	2c	2e
2GG	2G	2B	2d
[2GG	[2G	[2B	[2d
=73	=73	=73	=73
2GG]	2G]	2B]	2d]
2GG	2G	2B	2d
[1C	1G	1c	4e
.	.	.	4d
.	.	.	4e
.	.	.	4f
=74	=74	=74	=74
1C]	1E	1G	2g
.	.	.	1e
1AA	2.A	2.c	.
.	.	.	[2a
.	4B	4d	.
=75	=75	=75	=75
1.AA	2c	2e	4a]
.	.	.	4g
.	2.A	1c	2f
.	.	.	2e
.	4G	.	.
[2D	4F	[2A	[2f
.	4E	.	.
=76	=76	=76	=76
2D]	2D	4A]	2f]
.	.	4B	.
2AA	2E	2c	2.e
1D	1F#X	2.A	.
.	.	.	8dL
.	.	.	8cJ
.	.	.	2d
.	.	4B	.
=77	=77	=77	=77
[0C	0G	1c	0e
.	.	1c	.
=78	=78	=78	=78
0C]	0c	0e	[0g
=79	=79	=79	=79
0G	0B	0d	0g]
=80	=80	=80	=80
1F	1c	2r	1.a
.	.	2f	.
1F	2c	2f	.
.	2c	2f	2a
=81	=81	=81	=81
2F	2.A	1c	2a
2F	.	.	2a
.	4G	.	.
1D	2F	1f	1a
.	[2A	.	.
=82	=82	=82	=82
2.C	4A]	2.e	0cc
.	4G	.	.
.	1G	.	.
4BB	.	4d	.
1AA	.	2c	.
.	2F#i	2A	.
=83	=83	=83	=83
1GG	2G	1d	1b
.	1G	.	.
2r	.	1d	2.b
[2GG	[2D	.	.
.	.	.	4a
=84	=84	=84	=84
2GG]	2D]	1.g	2b
1C	2E	.	1cc
.	1E	.	.
2C	.	2e	2g
=85	=85	=85	=85
1AA	1E	2.c	2a
.	.	.	2.cc
.	.	4d	.
1AA	1c	1e	.
.	.	.	4b
.	.	.	[2a
=86	=86	=86	=86
1E	1B	1e	4a]
.	.	.	8gL
.	.	.	8fJ
.	.	.	2g
2AA	1r	1c	2e
2AA	.	.	2e
=87	=87	=87	=87
2AA	1A	1.c	2e
2AA	.	.	2e
2.FF	2A	.	[1f
.	2A	2c	.
4GG	.	.	.
=88	=88	=88	=88
2AA	2A	2c	2f]
2C	2G	2c	2e
2GG	2G	2B	2d
[2GG	[2G	[2B	[2d
=89	=89	=89	=89
2GG]	2G]	2B]	2d]
2GG	2G	2B	2d
[1C	1G	1c	4e
.	.	.	4d
.	.	.	4e
.	.	.	4f
=90	=90	=90	=90
1C]	1E	1G	2g
.	.	.	1e
1AA	2.A	2.c	.
.	.	.	[2a
.	4B	4d	.
=91	=91	=91	=91
1.AA	2c	2e	4a]
.	.	.	4g
.	2.A	2c	2f
.	.	2c	2e
.	4G	.	.
[2D	4F	[2A	[2f
.	4E	.	.
=92	=92	=92	=92
2D]	2D	2A]	2f]
2C	2G	1c	2.e
1F	1A	.	.
.	.	.	8dL
.	.	.	8cJ
.	.	4B	2d
.	.	4A	.
=93	=93	=93	=93
2E	2G	2B	1e
2C	2G	2c	.
2C	2E	2G	2r
2C	2E	2G	2e
=94	=94	=94	=94
0AA	2.A	2.c	2e
.	.	.	2e
.	4B	4d	.
.	1c	1e	1a
=95	=95	=95	=95
00El	00Bl	00el	00g#Xl
==	==	==	==
*-	*-	*-	*-
!!!system-decoration: [*]
!!!RDF**kern: i = editorial accidental
!!!RDF**kern: l = terminal long
!!!ENC: Benjamin Ory
!!!END: 2025/10/20
!!!EED: Benjamin Ory
!!!EEV: 2025/10/20
!!!YEC: Copyright 2025 Benjamin Ory, All Rights Reserved
!!!ONB: Translated from MusicXML on 2025/10/20